dist/img/svg/icon-vk.svg

<svg width="16" height="9" viewBox="0 0 16 9" fill="none" xmlns="http://www.w3.org/2000/svg">
<path d="M9.27223 2.31338C9.27223 2.8576 9.27134 3.40264 9.27223 3.94686C9.27223 4.09319 9.27845 4.24609 9.43386 4.3283C9.60348 4.41873 9.75534 4.33817 9.89655 4.2502C10.3202 3.98467 10.6026 3.59912 10.8885 3.22178C11.5262 2.37833 12.0803 1.48802 12.5013 0.533583C12.6514 0.194064 12.8698 0.0296481 13.2792 0.0469118C13.8334 0.06993 14.3884 0.0477339 14.9435 0.0543105C15.5021 0.0608872 15.733 0.366701 15.5296 0.851727C15.0714 1.94263 14.3742 2.90693 13.6522 3.85725C13.5057 4.05044 13.3716 4.25185 13.2251 4.44504C13.0181 4.71797 13.0696 4.95144 13.3103 5.18737C13.852 5.71679 14.376 6.26101 14.916 6.79125C15.3316 7.19982 15.654 7.6643 15.9204 8.1633C16.1335 8.56283 15.9026 8.96976 15.4204 8.9862C14.7002 9.01087 13.9781 8.99689 13.257 8.98703C13.0066 8.98374 12.8414 8.84398 12.6967 8.65162C12.0821 7.83776 11.3113 7.16201 10.4765 6.54463C10.4329 6.51257 10.385 6.48626 10.337 6.45995C9.82017 6.1788 9.56885 6.30047 9.54931 6.85126C9.53688 7.19982 9.54753 7.55003 9.54398 7.89941C9.53776 8.53324 9.10527 8.92455 8.42678 8.94921C6.77851 9.00922 5.4384 8.35485 4.23861 7.39795C3.04148 6.44269 2.25109 5.19806 1.47225 3.95179C0.882567 3.00558 0.386132 2.02072 0.0726407 0.962708C-0.132505 0.268873 0.0859619 0.00169745 0.86747 0.000875371C1.33371 5.32919e-05 1.79906 0.00416369 2.2653 5.32919e-05C2.63297 -0.00323503 2.86831 0.145561 2.99264 0.471927C3.31856 1.32442 3.65958 2.17199 4.11073 2.97598C4.47573 3.62542 4.89135 4.24281 5.4535 4.76483C5.53165 4.83717 5.61424 4.90869 5.70749 4.96212C5.95615 5.10599 6.12311 5.04433 6.21103 4.78373C6.23412 4.7155 6.25277 4.64316 6.25188 4.57246C6.23945 3.64926 6.30872 2.72442 6.18971 1.80205C6.1311 1.35155 5.85846 1.00381 5.59115 0.649496C5.4908 0.517141 5.34515 0.390541 5.44195 0.208039C5.53964 0.0230715 5.73679 0.0534884 5.91086 0.0526664C6.78739 0.0510222 7.66481 0.0502001 8.54134 0.0526664C9.09905 0.0543105 9.2669 0.213794 9.26956 0.741569C9.27223 1.26523 9.27045 1.78972 9.27045 2.31338H9.27223Z" fill="#507DB4"/>
</svg>

<svg width="16" height="9" viewBox="0 0 16 9" fill="none" xmlns="http://www.w3.org/2000/svg"><path d="M9.272 2.313v1.634c0 .146.006.3.162.381.17.09.321.01.463-.078.423-.265.706-.65.992-1.028.637-.844 1.191-1.734 1.612-2.688.15-.34.369-.504.778-.487.554.023 1.11 0 1.665.007.558.007.789.313.586.798-.459 1.09-1.156 2.055-1.878 3.005-.146.193-.28.395-.427.588-.207.273-.155.506.085.742.542.53 1.066 1.074 1.606 1.604.416.409.738.873 1.004 1.372.214.4-.017.807-.5.823-.72.025-1.442.01-2.163.001-.25-.003-.416-.143-.56-.335-.615-.814-1.386-1.49-2.22-2.107a1.235 1.235 0 00-.14-.085c-.517-.281-.768-.16-.788.391-.012.349-.001.699-.005 1.048-.006.634-.439 1.026-1.117 1.05-1.648.06-2.989-.594-4.188-1.551-1.198-.955-1.988-2.2-2.767-3.446C.882 3.006.386 2.02.072.962-.132.27.087.003.868.002c.467 0 .932.003 1.398 0 .368-.004.603.145.728.47.326.853.667 1.701 1.118 2.505.365.65.78 1.267 1.343 1.789.078.072.16.144.253.197.25.144.416.082.504-.178a.647.647 0 00.04-.212c-.012-.923.058-1.848-.061-2.77-.059-.45-.332-.798-.599-1.153-.1-.132-.246-.258-.149-.441.098-.185.295-.155.469-.155.876-.002 1.754-.003 2.63 0 .558.001.726.16.729.689.002.523 0 1.048 0 1.571h.002z" fill="#507DB4"/></svg>
